www/assets/images/test_icons/flags/KP.svg

<svg fill="none" height="15" viewBox="0 0 21 15" width="21" xmlns="http://www.w3.org/2000/svg" xmlns:xlink="http://www.w3.org/1999/xlink"><mask id="a" height="15" maskUnits="userSpaceOnUse" width="21" x="0" y="0"><path d="m19 0h-17c-1.10457 0-2 .89543-2 2v11c0 1.1046.89543 2 2 2h17c1.1046 0 2-.8954 2-2v-11c0-1.10457-.8954-2-2-2z" fill="#fff"/></mask><g mask="url(#a)"><path d="m19 0h-17c-1.10457 0-2 .89543-2 2v11c0 1.1046.89543 2 2 2h17c1.1046 0 2-.8954 2-2v-11c0-1.10457-.8954-2-2-2z" fill="#004da4"/><path clip-rule="evenodd" d="m0 3h21v1h-21z" fill="#fff" fill-rule="evenodd"/><path clip-rule="evenodd" d="m0 4h21v7h-21z" fill="#f0161b" fill-rule="evenodd"/><path d="m5.5 10c1.38071 0 2.5-1.11929 2.5-2.5s-1.11929-2.5-2.5-2.5-2.5 1.11929-2.5 2.5 1.11929 2.5 2.5 2.5z" fill="#fff"/><path clip-rule="evenodd" d="m5.49801 8.476-1.2.63.23-1.335-.97-.944 1.34-.195.6-1.214.6 1.215 1.34.196-.97.945.23 1.336" fill="#f0161b" fill-rule="evenodd"/><path clip-rule="evenodd" d="m0 11h21v1h-21z" fill="#fff" fill-rule="evenodd"/><path d="m19 .5h-17c-.82843 0-1.5.67157-1.5 1.5v11c0 .8284.67157 1.5 1.5 1.5h17c.8284 0 1.5-.6716 1.5-1.5v-11c0-.82843-.6716-1.5-1.5-1.5z" stroke="#000" stroke-opacity=".1"/></g></svg>

<svg width="21" height="15" viewBox="0 0 21 15" fill="none" xmlns="http://www.w3.org/2000/svg">
<mask id="mask0_3_118" style="mask-type:alpha" maskUnits="userSpaceOnUse" x="0" y="0" width="21" height="15">
<path d="M19 0H2C0.89543 0 0 0.89543 0 2V13C0 14.1046 0.89543 15 2 15H19C20.1046 15 21 14.1046 21 13V2C21 0.89543 20.1046 0 19 0Z" fill="white"/>
</mask>
<g mask="url(#mask0_3_118)">
<path d="M19 0H2C0.89543 0 0 0.89543 0 2V13C0 14.1046 0.89543 15 2 15H19C20.1046 15 21 14.1046 21 13V2C21 0.89543 20.1046 0 19 0Z" fill="#004DA4"/>
<path fill-rule="evenodd" clip-rule="evenodd" d="M0 3H21V4H0V3Z" fill="white"/>
<path fill-rule="evenodd" clip-rule="evenodd" d="M0 4H21V11H0V4Z" fill="#F0161B"/>
<path d="M5.5 10C6.88071 10 8 8.88071 8 7.5C8 6.11929 6.88071 5 5.5 5C4.11929 5 3 6.11929 3 7.5C3 8.88071 4.11929 10 5.5 10Z" fill="white"/>
<path fill-rule="evenodd" clip-rule="evenodd" d="M5.49801 8.476L4.29801 9.106L4.52801 7.771L3.55801 6.827L4.89801 6.632L5.49801 5.418L6.09801 6.633L7.43801 6.829L6.46801 7.774L6.69801 9.11" fill="#F0161B"/>
<path fill-rule="evenodd" clip-rule="evenodd" d="M0 11H21V12H0V11Z" fill="white"/>
<path d="M19 0.5H2C1.17157 0.5 0.5 1.17157 0.5 2V13C0.5 13.8284 1.17157 14.5 2 14.5H19C19.8284 14.5 20.5 13.8284 20.5 13V2C20.5 1.17157 19.8284 0.5 19 0.5Z" stroke="black" stroke-opacity="0.1"/>
</g>
</svg>
